X:4068
L:1/8
M:4/4
K:G
 E>F | G2 G2 A>FEF | A3 B d2 ed | B2 AF E2 E2 | D6 E2 | G2 G2 A>FEF | A3 B d2 ed | B2 AF E2 E2 | 
 E6 || A2 | B2 e2 e2 | dB | A3 B d2 ed | B2 AF E2 E2 | D6 E>F | G3 B AFEF | A3 B d2 ed | 
 B2 AF E2 E2 | E6 ||

